X: 7
T: Ave panis angelorum
C: Anonymous
%%abc-version 2.0
%%abcx-abcm2ps-target-version 5.9.1 (29 Sep 2008)
%%abc-creator hum2abc beta
%%abcx-conversion-date 2022/03/06 13:06:00
%%abc-copyright Copyright 2008, Pavanello, Agnese
%%abc-edited-by Mair-Gruber, Roland
%%humdrum-veritas 1789216143
%%humdrum-veritas-data 2513124359
%%linebreak <none>
%%barnumbers 0
L: 1/4
M: 2/2
N: Derived from Ano0422-Ave_panis_angelorum.krn
%%staves [1 2 3 4]
V: 1 clef=treble
V: 2 clef=treble-8
V: 3 clef=treble-8
V: 4 clef=bass
K: C
[V:1] !fermata!c4 | 
[V:2] !fermata!g4 | 
[V:3] !fermata!c4 | 
[V:4] !fermata!C,4 | 
[V:1] !fermata!c4 | 
[V:2] !fermata!g4 | 
[V:3] !fermata!e4 | 
[V:4] !fermata!C4 | 
[V:1] !fermata!c4 | 
[V:2] !fermata!c4 | 
[V:3] !fermata!f4 | 
[V:4] !fermata!A,4 | 
[V:1] !fermata!B4 | 
[V:2] !fermata!d4 | 
[V:3] !fermata!g4 | 
[V:4] !fermata!G,4 | 
[V:1] !fermata!c4 | 
[V:2] !fermata!g4 | 
[V:3] !fermata!e4 | 
[V:4] !fermata!C,4 | 
[V:1] !fermata!A4 | 
[V:2] !fermata!d4 | 
[V:3] !fermata!f4 | 
[V:4] !fermata!D,4 | 
[V:1] !fermata!B4 | 
[V:2] !fermata!d4 | 
[V:3] !fermata!g4 | 
[V:4] !fermata!G,4 | 
[V:1] !fermata!B4 | 
[V:2] !fermata!g4 | 
[V:3] !fermata!d4 | 
[V:4] !fermata!G,4 | 
[V:1] c2c2 | 
[V:2] g2g2 | 
[V:3] e2e2 | 
[V:4] C,2C,2 | 
[V:1] B2B2 | 
[V:2] g2g2 | 
[V:3] d2d2 | 
[V:4] G,2G,2 | 
[V:1] c2A2 | 
[V:2] e2c2 | 
[V:3] c2c2 | 
[V:4] A,2A,2 | 
[V:1] c>BA3/G/ | 
[V:2] A4 | 
[V:3] c2d2 | 
[V:4] F,4 | 
[V:1] !fermata!G4 ||  
[V:2] !fermata!B4 ||  
[V:3] !fermata!e4 ||  
[V:4] !fermata!E,4 ||  
[V:1] [M:3/2]G4G2 | 
[V:2] [M:3/2]G4G2 | 
[V:3] [M:3/2]B4B2 | 
[V:4] [M:3/2]E,4E,2 | 
[V:1] G4E2 | 
[V:2] G4G2 | 
[V:3] B4c2 | 
[V:4] E,4E,2 | 
[V:1] F4F2 | 
[V:2] A4A2 | 
[V:3] d4d2 | 
[V:4] D,4D,2 | 
[V:1] !fermata!G6 | 
[V:2] !fermata!G6 | 
[V:3] !fermata!B6 | 
[V:4] !fermata!E,6 | 
[V:1] G4G2 | 
[V:2] e4e2 | 
[V:3] c4G2 | 
[V:4] C,4C,2 | 
[V:1] G2c2c2 | 
[V:2] e2e2e2 | 
[V:3] G2G2A2 | 
[V:4] C,2C,2C,2 | 
[V:1] d4d2 | 
[V:2] d4d2 | 
[V:3] B4B2 | 
[V:4] B,,4B,,2 | 
[V:1] !fermata!e6 | 
[V:2] !fermata!c6 | 
[V:3] !fermata!G6 | 
[V:4] !fermata!C,6 | 
[V:1] !fermata!c6 | 
[V:2] !fermata!g6 | 
[V:3] !fermata!e6 | 
[V:4] !fermata!C,6 | 
[V:1] !fermata!B6 | 
[V:2] !fermata!g6 | 
[V:3] !fermata!d6 | 
[V:4] !fermata!G,6 | 
[V:1] !fermata!A6 | 
[V:2] !fermata!e6 | 
[V:3] !fermata!c6 | 
[V:4] !fermata!A,6 | 
[V:1] !fermata!G6 | 
[V:2] !fermata!e6 | 
[V:3] !fermata!B6 | 
[V:4] !fermata!E,6 | 
[V:1] !fermata!A6 | 
[V:2] !fermata!c6 | 
[V:3] !fermata!A6 | 
[V:4] !fermata!F,6 | 
[V:1] !fermata!G6 | 
[V:2] !fermata!e6 | 
[V:3] !fermata!c6 | 
[V:4] !fermata!C,6 | 
[V:1] !fermata!F6 | 
[V:2] !fermata!d6 | 
[V:3] !fermata!A6 | 
[V:4] !fermata!D,6 | 
[V:1] !fermata!G6 | 
[V:2] !fermata!d6 | 
[V:3] !fermata!B6 | 
[V:4] !fermata!G,6 | 
[V:1] z6 | 
[V:2] d2d2d2 | 
[V:3] z6 | 
[V:4] G,2G,2G,2 | 
[V:1] z6 | 
[V:2] e2e2f2 | 
[V:3] z6 | 
[V:4] C2C2D2 | 
[V:1] z6 | 
[V:2] g2>f2d2 | 
[V:3] G2G2G2 | 
[V:4] E2D3C | 
[V:1] z6 | 
[V:2] e2c2A2 | 
[V:3] c2c2d2 | 
[V:4] A,2>G,2F,2 | 
[V:1] G2G2G2 | 
[V:2] B2G2g2 | 
[V:3] e2>d2cB | 
[V:4] E,4G,2 | 
[V:1] c2c2d2 | 
[V:2] a2>g2f2 | 
[V:3] A4B2 | 
[V:4] F,2>E,2D,2 | 
[V:1] e2>d2cB | 
[V:2] e4z2 | 
[V:3] c2>d2e2 | 
[V:4] C,2CB,A,G, | 
[V:1] AG2<d2c | 
[V:2] c2d2B2 | 
[V:3] f4g2 | 
[V:4] F,2D,2E,2 | 
[V:1] c4B2 | 
[V:2] c2G2g2 | 
[V:3] e2d4 | 
[V:4] C,2G,4 | 
[V:1] c4 |]  
[V:2] g4 |]  
[V:3] c4 |]  
[V:4] C,4 |]  


